!!!OTL: Der grausame Bruder.
!!!OTL-incipit: Es wollte ein Kuechenjung ueber den Rhein,
!!!ARE: Europa, Mitteleuropa, Deutschland (), Sachsen, Genthin
!!!YOR: 3, S. 258
!!    1847 aufgezeichnet
!!!SCT: Q0068H
!!!TXL: @@DE
!!!YEM: Copyright 1995, estate of Helmut Schaffrath.
**kern	**text
*ICvox	*
*M3/4	*
*k[f#]	*
*G:	*
!LO:TX:a:t=Sachſen	!
{4d	Es
=1	=1
4g	woll-
4g	-te
4d	ein
=2	=2
4g	Küchen-
4a	.
4b	-jung
=3	=3
4a	ü-
4f#	-ber
4a	den
=4	=4
(4f#	Rhein,
4d)}	.
{4g	und
=5	=5
4e	woll-
4f#	-te
4g	Mark-
=6	=6
4d	-gra-
4d	-fen,
4B	ſein
=7	=7
4e	Töch-
4f#	-ter-
4g	-lein
=8	=8
4d	frein,
4r}	.
{4d	und
=9	=9
4g	woll-
4g	-te
4d	Markgra-
=10	=10
4g	.
4a	-fen,
4b	ſein
=11	=11
4d	Töch-
4d	-ter-
4d	-lein
=12	=12
4g	frein.
4r}	.
==	==
!!!AGN: Ballade, Schwangerschaft, Moral, Mord
!!!ONB: ESAC (Essen Associative Code) Database: BALLADE
!!!AMT: simple triple
!!!AIN: vox
!!!EED: Helmut Schaffrath
!!!EEV: 1.0
!!!source: Deutsche Volkslieder mit ihren Melodien. Herausgegeben vom Deutschen Volksliedarchiv. Dritter Band Balladen. Berlin 1954.
!!!page: 258
!!!ENC: Anna Maria Matuszewska
!!!EEV: 2025/02/21
*-	*-
